X: 400
T: Bir Nigâh ile
C: Nikoğos Ağa
O: Turkey
F: http://compmusic.upf.edu/node/140
N: suzidil--sarki--agiraksak--bir_nigah_ile--nikogos_aga
N: makam= suzidil
N: form= sarki
N: usul= agiraksak = 9/4
M: 9/4
L: 1/16
K: C ^1/4f ^g ^d 
Q: 1/4=78
%%MIDI tuningsystem comma53
e3g =f2e2 d2c2 B2A2 G2A2 BcBA AA2B c2d2 e2f2  | 
w:  ARANAĞME  | 
g2a4g=f e3c' bc'ba g2{a}ga gffe e4 ABcd e4  | 
w:   | 
=d2a4=g=f e4 g4 gffe eddc B3/2c/de dcBA B4  | 
w:   | 
G2A4G=F E3e dcBA G2{A}GA GFFE E2FG ABcd e4  | 
w:   | 
e3g =f2e2 d2c2 B2A2 G2A2 BcBA AA2B c2d2 e2f2  | 
w:  ARANAĞME  | 
g2a4g=f e3c' bc'ba g2{a}ga gffe e4 ABcd e4  | 
w:   | 
=d2a4=g=f e4 g4 gffe eddc B3/2c/de dcBA B4  | 
w:   | 
G2A4G=F E3e dcBA G2{A}GA GFFE E6B2 c2d2  | 
w:   | 
ede=f edcd e2e4fg f2e6 f3e d2e2 d4  | \
w:  *  *  *  *  *  *  *  *  *  Bir  ni *  gâh  *  i  | 
=f3e d2e2 c4 B4 c4 d4 e2{f}ed e4 z4  | 
w:  le  *  *  *  be *  ni  *  ey   | 
e4 =f4 f6{g}fe e6{f}ed d6c2 e2{g}fe  | \
w:  dil *  *  *  *  *  *  *  *  *  *  *  rü  | 
e2e4dc c6BA A3B c2{d}cB B6Bc BAGA  | 
w:  *  bâ  *  *  *  *  *  câ *  *  *  *  *  nım   SAZ  | 
B3/2A/B^2/4c =d=cBA B2B4B2 B2^2/4c2 A4 edd^3/4c d2e2 {=g}^fedc  | 
w:  *  *  *  *  *  *  *  *  *  Zül fü ne  *  *  et  | 
=d^1/4cB2 B6.B4e2 d2=c2 B2A2 G4 BAG=F .E4  | \
w:  *  *  *  *  tin  e sîr_ *  *  *  ü   | 
G4 A6{=d}c2 B2A2 G3=F F3E E4 D4 E2{G}FE  | 
w:  müp *  *  *  *  *  *  *  *  *  *  *  te  | 
E2E6 z4 b2c'2 b2a2 gabg a6g2 c'2ba  | \
w:  *  lâ   SAZ  | 
agab ag=fg a2a4a2 a3g f4 g8 a2b2  | 
w:  *  *  *  *  *  *  *  *  *  Yok  i miş  *  *  sen  | 
g2=f2 e2d2 .e4 f2g2 f2e4f2 (3e2d2c2 d2e2 d4  | \
w:  *  *  *  *  de  me *  ğer  *  *  bûy_  | 
d2e4=f2 g4 a4 gfed efga _7/8b2a2 a3g g2a2  | 
w:  *  i  *  *  *  *  *  *  *  *  *  *  *  *  *  *  *  ve  | 
g2=f6 f2g2 f2.e2 e2ed cdef d2e4d2 g2fe  | \
w:  fâ  *  *  *  *  *  câ *  *  *  *  *  *  nım   *  *  SAZ  | 
ede=f edcd e2e4fg f2e6 f3e d2e2 d4  | 
w:  *  *  *  *  *  *  *  *  *  Bir  ni *  gâh  *  i  | 
=f3e d2e2 c4 B4 c4 d4 e2{f}ed e4 z4  | \
w:  le  *  *  *  be *  ni  *  ey   | 
e4 =f4 f6{g}fe e6{f}ed d6c2 e2{g}fe  | 
w:  dil *  *  *  *  *  *  *  *  *  *  *  rü  | 
e2e4dc c6BA A3B c2{d}cB B6Bc BAGA  | \
w:  *  bâ  *  *  *  *  *  câ *  *  *  *  *  nım   SAZ  | 
B3/2A/B^2/4c =d=cBA B2B4B2 B2^2/4c2 A4 edd^3/4c d2e2 {=g}^fedc  | 
w:  *  *  *  *  *  *  *  *  *  Zül fü ne  *  *  et  | 
=d^1/4cB2 B6.B4e2 d2=c2 B2A2 G4 BAG=F .E4  | \
w:  *  *  *  *  tin  e sîr_ *  *  *  ü   | 
G4 A6{=d}c2 B2A2 G3=F F3E E4 D4 E2{G}FE  | 
w:  müp *  *  *  *  *  *  *  *  *  *  *  te  | 
E2E6 z4 |
w:  *  lâ    | 


